X: 22550
T: Lady Iveagh
R: polka
M: 2/4
K: Adorian
|:A2 dB|A2 B/A/G/F/|G2 zA|G2 A/G/E/D/|
A2 zB|c(3c/d/e/ dB|G>F GB|A2 z2|
A2 dB|A2 B/A/G/F/|G2 zA|G2 A/G/E/D/|
A2 zB|c(3c/d/e/ dB|G>F GB|A2- Az:|
|:.g>.f .g.a|g2 a/g/e/d/|.a>^.g .a.b|a2 b/a/g/e/|
g2 za|g(3d/e/f/ g(3d/e/f/|g(3e/f/^g/ a(3e/f/g/|aa- ag/>a/|
.b.a .g.b|a2 ge/f/|.g.e .d.g|e2 dB|
A2 zB|c(3c/d/e/ dB|G>F GB|A2- Az:|

